X:845
T:Brudmarsch frn Dalby
A:Vrmland
M:4/4
O:Sweden
R:Wedding march
Z:Carol Turner
%%TUNEURL: http://www.leeds.ac.uk/music/Info/RRTuneBk/gettune/00000c5f.html
%%ID:00000c5f
K:A min
^GAB|\
c3B AE ^G2 | A4 A^GAB | c3B AE ^G2| A4 A2 E2 |\
e3d e2 f2 | e2 d2 B2 cd| e3c A4- | A3 B A2 Bc |:\
d3 e d2 cd| B3A ^G2 ^FG | E4-EBcd | e3d e2 f2 | e2 d2 c2 Bc|\
d2 ed c2 BA| [M:2/4] ^G4 A2B2 | \
[M:4/4] c3B AE ^G2 |1 A4 A2 Bc :|2 A4 z4|]
